assets/svg/icon_sendfunds_user.svg

<svg width="24" height="24" viewBox="0 0 24 24" fill="none" xmlns="http://www.w3.org/2000/svg">
<path fill-rule="evenodd" clip-rule="evenodd" d="M9.99965 3.28125C7.87269 3.28125 6.14844 5.00551 6.14844 7.13248C6.14844 9.25946 7.87269 10.9837 9.99965 10.9837C12.1267 10.9837 13.8509 9.25946 13.8509 7.13248C13.8509 5.00551 12.1267 3.28125 9.99965 3.28125ZM7.36462 7.13248C7.36462 5.67718 8.54437 4.49743 9.99965 4.49743C11.455 4.49743 12.6347 5.67718 12.6347 7.13248C12.6347 8.58779 11.455 9.76754 9.99965 9.76754C8.54437 9.76754 7.36462 8.58779 7.36462 7.13248Z" fill="#0E0E0E"/>
<path fill-rule="evenodd" clip-rule="evenodd" d="M10.0007 12.2036C8.12494 12.2036 6.39673 12.63 5.11611 13.3503C3.85456 14.06 2.90635 15.1355 2.90635 16.4602L2.90631 16.5429C2.90539 17.4849 2.90424 18.6672 3.94126 19.5116C4.45162 19.9272 5.16559 20.2228 6.13021 20.4181C7.09753 20.6138 8.35827 20.7169 10.0007 20.7169C11.6432 20.7169 12.904 20.6138 13.8712 20.4181C14.8359 20.2228 15.5499 19.9272 16.0602 19.5116C17.0972 18.6672 17.0961 17.4849 17.0952 16.5429L17.0951 16.4602C17.0951 15.1355 16.147 14.06 14.8854 13.3503C13.6047 12.63 11.8765 12.2036 10.0007 12.2036ZM4.12253 16.4602C4.12253 15.77 4.62634 15.0212 5.71236 14.4103C6.77932 13.8102 8.29425 13.4198 10.0007 13.4198C11.7072 13.4198 13.2221 13.8102 14.2891 14.4103C15.3752 15.0212 15.8789 15.77 15.8789 16.4602C15.8789 17.5206 15.8462 18.1175 15.2922 18.5686C14.9918 18.8133 14.4896 19.0521 13.6299 19.2261C12.773 19.3995 11.6014 19.5007 10.0007 19.5007C8.40005 19.5007 7.22844 19.3995 6.37149 19.2261C5.51184 19.0521 5.00963 18.8133 4.70921 18.5686C4.15522 18.1175 4.12253 17.5206 4.12253 16.4602Z" fill="#0E0E0E"/>
<path d="M18 7L22 7" stroke="#0E0E0E" stroke-width="1.2" stroke-linecap="round"/>
<path d="M16 10H22" stroke="#0E0E0E" stroke-width="1.2" stroke-linecap="round"/>
<path d="M18 13L22 13" stroke="#0E0E0E" stroke-width="1.2" stroke-linecap="round"/>
</svg>

<svg xmlns="http://www.w3.org/2000/svg" width="24" height="24" fill="none"><path fill="#0E0E0E" fill-rule="evenodd" d="M10 3.281a3.851 3.851 0 1 0 0 7.703 3.851 3.851 0 0 0 0-7.703M7.365 7.132a2.635 2.635 0 1 1 5.27 0 2.635 2.635 0 0 1-5.27 0M10 12.204c-1.875 0-3.603.426-4.884 1.146-1.261.71-2.21 1.786-2.21 3.11v.083c0 .942-.002 2.124 1.035 2.969.51.415 1.225.71 2.19.906.967.196 2.227.299 3.87.299 1.642 0 2.903-.103 3.87-.299.965-.195 1.679-.49 2.19-.906 1.036-.845 1.035-2.027 1.034-2.97v-.082c0-1.325-.948-2.4-2.21-3.11-1.28-.72-3.008-1.146-4.884-1.146M4.124 16.46c0-.69.503-1.439 1.59-2.05 1.066-.6 2.581-.99 4.288-.99 1.706 0 3.221.39 4.288.99 1.086.611 1.59 1.36 1.59 2.05 0 1.06-.033 1.657-.587 2.109-.3.244-.802.483-1.662.657-.857.174-2.029.275-3.63.275s-2.772-.102-3.629-.275c-.86-.174-1.361-.413-1.662-.657-.554-.451-.586-1.048-.586-2.109" clip-rule="evenodd"/><path stroke="#0E0E0E" stroke-linecap="round" stroke-width="1.2" d="M18 7h4M16 10h6M18 13h4"/></svg>
